public/icon/svg/Tencent.video.svg

<?xml version="1.0" encoding="UTF-8"?>
<svg width="1025px" height="1024px" viewBox="0 0 1025 1024" version="1.1" xmlns="http://www.w3.org/2000/svg" xmlns:xlink="http://www.w3.org/1999/xlink">
    <title>Tencent.video</title>
    <defs>
        <linearGradient x1="21.5676364%" y1="2.33817077%" x2="21.5676364%" y2="100%" id="linearGradient-1">
            <stop stop-color="#AFFA23" offset="0%"></stop>
            <stop stop-color="#64BB02" offset="100%"></stop>
        </linearGradient>
        <linearGradient x1="28.8988571%" y1="0%" x2="31.0426182%" y2="100%" id="linearGradient-2">
            <stop stop-color="#52C7FF" offset="0%"></stop>
            <stop stop-color="#0081F5" offset="100%"></stop>
        </linearGradient>
        <path d="M594.857916,317.800026 C594.857916,413.801176 155.121362,679.294998 64.6294344,629.404633 C-25.8624932,579.514261 -17.1128162,46.2348867 64.6294344,4.51041083 C146.371685,-37.214065 594.857916,221.798876 594.857916,317.800026 Z" id="path-3"></path>
        <linearGradient x1="33.7189604%" y1="7.72784034%" x2="33.7189604%" y2="93.4027449%" id="linearGradient-5">
            <stop stop-color="#FFBB09" offset="0%"></stop>
            <stop stop-color="#FF7203" offset="100%"></stop>
        </linearGradient>
        <path d="M594.857916,317.800026 C594.857916,413.801176 155.121362,679.294998 64.6294344,629.404633 C-25.8624932,579.514261 -17.1128162,46.2348867 64.6294344,4.51041083 C146.371685,-37.214065 594.857916,221.798876 594.857916,317.800026 Z" id="path-6"></path>
    </defs>
    <g id="ICON-新版方图标" stroke="none" stroke-width="1" fill="none" fill-rule="evenodd">
        <g id="Tencent.video" transform="translate(0.6332, 0)">
            <rect id="蒙版路径" fill="#FFFFFF" x="0" y="0" width="1024" height="1024"></rect>
            <path d="M717.604623,508.985089 C717.604623,583.525475 306.576985,789.668968 221.992969,750.931437 C137.408953,712.193908 145.587394,298.127507 221.992969,265.73041 C298.398544,233.333313 717.604623,434.444703 717.604623,508.985089 Z" id="4" fill="url(#linearGradient-1)" fill-rule="nonzero"></path>
            <g id="3" transform="translate(266.7251, 194.028)" fill="url(#linearGradient-2)" fill-rule="nonzero">
                <path d="M594.857916,317.800026 C594.857916,413.801176 155.121362,679.294998 64.6294344,629.404633 C-25.8624932,579.514261 -17.1128162,46.2348867 64.6294344,4.51041083 C146.371685,-37.214065 594.857916,221.798876 594.857916,317.800026 Z" id="path-3"></path>
            </g>
            <g id="2-Clipped" transform="translate(266.7251, 194.028)">
                <mask id="mask-4" fill="white">
                    <use xlink:href="#path-3"></use>
                </mask>
                <g id="path-3"></g>
                <path d="M449.150632,314.759494 C449.150632,389.429102 37.9203178,595.92996 -46.7054063,557.125274 C-131.33113,518.320591 -123.148657,103.536375 -46.7054063,71.0831151 C29.7378442,38.6298553 449.150632,240.089887 449.150632,314.759494 Z" id="2" fill="url(#linearGradient-5)" fill-rule="nonzero" mask="url(#mask-4)"></path>
            </g>
            <g id="1-Clipped" transform="translate(266.7251, 194.028)">
                <mask id="mask-7" fill="white">
                    <use xlink:href="#path-6"></use>
                </mask>
                <g id="path-3"></g>
                <path d="M327.292894,317.510984 C327.292894,326.770015 312.012729,340.463157 289.578143,355.147741 L284.664187,358.308359 C283.82793,358.83724 282.983288,359.367071 282.130631,359.897697 L276.921469,363.089725 L276.921469,363.089725 L271.537714,366.293284 L271.537714,366.293284 L265.997133,369.500847 L265.997133,369.500847 L260.317494,372.704885 L260.317494,372.704885 L254.516563,375.897872 L254.516563,375.897872 L248.61211,379.072279 L248.61211,379.072279 L239.60019,383.782585 L239.60019,383.782585 L233.514663,386.877609 L233.514663,386.877609 L227.387799,389.927706 L227.387799,389.927706 L221.237366,392.92535 L221.237366,392.92535 L215.081133,395.86301 L215.081133,395.86301 L208.936866,398.733161 L208.936866,398.733161 L202.822333,401.528275 L202.822333,401.528275 L196.755303,404.240823 L196.755303,404.240823 L190.753542,406.863279 L190.753542,406.863279 L184.834818,409.388114 C183.856271,409.800367 182.881924,410.208238 181.912148,410.611572 L176.151295,412.975862 L176.151295,412.975862 L170.517898,415.223711 L170.517898,415.223711 L165.029725,417.347595 C164.128119,417.690826 163.233304,418.028579 162.345651,418.360696 L157.108629,420.284513 C156.251102,420.593459 155.401477,420.896456 154.560124,421.193347 L149.614229,422.900161 L149.614229,422.900161 L144.88463,424.452897 C144.115375,424.698428 143.355872,424.937226 142.606493,425.169133 L138.23465,426.476638 L138.23465,426.476638 L134.123521,427.611244 L134.123521,427.611244 L130.290874,428.565426 C121.686745,430.575499 115.501985,431.050623 112.752311,429.560465 C109.274302,427.675593 106.41219,419.835579 104.165975,408.13867 L103.398767,403.853618 C103.02795,401.634434 102.676313,399.302828 102.343856,396.870328 L101.704517,391.874223 L101.704517,391.874223 L101.116324,386.629572 L101.116324,386.629572 L100.579278,381.156875 C100.494032,380.226893 100.410918,379.288264 100.329936,378.341415 L99.8696108,372.565084 L99.8696108,372.565084 L99.4604334,366.611957 C99.3964989,365.606175 99.3346965,364.593881 99.2750243,363.575501 L98.9425678,357.395616 L98.9425678,357.395616 L98.6612582,351.090184 L98.6612582,351.090184 L98.431096,344.679704 L98.431096,344.679704 L98.2520807,338.184677 L98.2520807,338.184677 L98.1242123,331.625603 L98.1242123,331.625603 L98.047492,325.022981 L98.047492,325.022981 L98.0219179,318.39731 L98.0219179,318.39731 L98.047492,311.769092 L98.047492,311.769092 L98.1242123,305.158826 L98.1242123,305.158826 L98.2520807,298.587011 L98.2520807,298.587011 L98.5397836,288.84623 L98.5397836,288.84623 L98.7955198,282.460232 L98.7955198,282.460232 L99.1024029,276.184435 C99.157812,275.14879 99.2153527,274.118593 99.2750243,273.094268 L99.6586283,267.022209 L99.6586283,267.022209 L100.09338,261.111602 C100.170101,260.141094 100.248952,259.178168 100.329936,258.223249 L100.841408,252.593255 L100.841408,252.593255 L101.404027,247.175962 C101.502059,246.291943 101.602222,245.417642 101.704517,244.553485 L102.343856,239.493679 C102.676313,237.028056 103.02795,234.661414 103.398767,232.405285 L104.165975,228.043792 C106.41219,216.123083 109.274302,207.997905 112.752311,205.766504 C115.894795,203.750368 123.523923,204.393513 134.123521,207.032031 L138.23465,208.113711 L138.23465,208.113711 L142.606493,209.374678 C143.355872,209.599347 144.115375,209.831162 144.88463,210.069961 L149.614229,211.585269 L149.614229,211.585269 L154.560124,213.260411 L154.560124,213.260411 L159.704545,215.087609 L159.704545,215.087609 L165.029725,217.059082 L165.029725,217.059082 L170.517898,219.167049 L170.517898,219.167049 L176.151295,221.403731 L176.151295,221.403731 L181.912148,223.761347 L181.912148,223.761347 L187.78269,226.232118 C188.769267,226.65291 189.759674,227.078093 190.753542,227.507504 L196.755303,230.133418 L196.755303,230.133418 L202.822333,232.853035 L202.822333,232.853035 L208.936866,235.658575 L208.936866,235.658575 L215.081133,238.542259 L215.081133,238.542259 L221.237366,241.496306 L221.237366,241.496306 L227.387799,244.512936 L227.387799,244.512936 L233.514663,247.584369 L233.514663,247.584369 L239.60019,250.702823 L239.60019,250.702823 L245.626614,253.86052 C246.625106,254.389641 247.620394,254.920072 248.61211,255.451652 L254.516563,258.653625 L254.516563,258.653625 L260.317494,261.875389 L260.317494,261.875389 L265.997133,265.109164 L265.997133,265.109164 L271.537714,268.34717 C273.359424,269.426347 275.154996,270.504932 276.921469,271.581628 L282.130631,274.804756 C283.835945,275.87638 285.509199,276.944819 287.147431,278.008776 L291.954102,281.185905 C313.084679,295.410816 327.292894,308.582633 327.292894,317.510984 Z" id="1" fill="#FFFFFF" fill-rule="nonzero" mask="url(#mask-7)"></path>
            </g>
        </g>
    </g>
</svg>

<svg xmlns="http://www.w3.org/2000/svg" xmlns:xlink="http://www.w3.org/1999/xlink" width="1025" height="1024"><defs><linearGradient id="a" x1="21.568%" x2="21.568%" y1="2.338%" y2="100%"><stop offset="0%" stop-color="#AFFA23"/><stop offset="100%" stop-color="#64BB02"/></linearGradient><linearGradient id="b" x1="28.899%" x2="31.043%" y1="0%" y2="100%"><stop offset="0%" stop-color="#52C7FF"/><stop offset="100%" stop-color="#0081F5"/></linearGradient><linearGradient id="d" x1="33.719%" x2="33.719%" y1="7.728%" y2="93.403%"><stop offset="0%" stop-color="#FFBB09"/><stop offset="100%" stop-color="#FF7203"/></linearGradient><path id="c" d="M594.858 317.8c0 96.001-439.737 361.495-530.229 311.605-90.491-49.89-81.742-583.17 0-624.895C146.372-37.214 594.858 221.8 594.858 317.8"/><path id="f" d="M594.858 317.8c0 96.001-439.737 361.495-530.229 311.605-90.491-49.89-81.742-583.17 0-624.895C146.372-37.214 594.858 221.8 594.858 317.8"/></defs><g fill="none" fill-rule="evenodd"><path fill="#FFF" d="M.633 0h1024v1024H.633z"/><path fill="url(#a)" fill-rule="nonzero" d="M717.605 508.985c0 74.54-411.028 280.684-495.612 241.946-84.584-38.737-76.406-452.803 0-485.2 76.406-32.398 495.612 168.714 495.612 243.254" transform="translate(.633)"/><path fill="url(#b)" fill-rule="nonzero" d="M594.858 317.8c0 96.001-439.737 361.495-530.229 311.605-90.491-49.89-81.742-583.17 0-624.895C146.372-37.214 594.858 221.8 594.858 317.8" transform="translate(267.358 194.028)"/><g transform="translate(267.358 194.028)"><mask id="e" fill="#fff"><use xlink:href="#c"/></mask><path fill="url(#d)" fill-rule="nonzero" d="M449.15 314.76c0 74.67-411.23 281.17-495.855 242.365-84.626-38.804-76.444-453.589 0-486.042C29.738 38.63 449.15 240.09 449.15 314.76" mask="url(#e)"/></g><g transform="translate(267.358 194.028)"><mask id="g" fill="#fff"><use xlink:href="#f"/></mask><path fill="#FFF" fill-rule="nonzero" d="M327.293 317.511c0 9.259-15.28 22.952-37.715 37.637l-4.914 3.16a412 412 0 0 1-2.533 1.59l-5.21 3.192-5.383 3.203-5.54 3.208-5.68 3.204-5.801 3.193-5.905 3.174-9.012 4.71-6.085 3.096-6.127 3.05-6.15 2.997-6.157 2.938-6.144 2.87-6.115 2.795-6.067 2.713-6.001 2.622-5.92 2.525c-.978.412-1.952.82-2.922 1.224l-5.76 2.364-5.634 2.248-5.488 2.124c-.902.343-1.797.68-2.684 1.013l-5.237 1.924c-.858.308-1.708.611-2.549.908l-4.946 1.707-4.73 1.553c-.769.245-1.528.484-2.278.716l-4.371 1.308-4.111 1.134-3.833.954c-8.604 2.01-14.789 2.486-17.539.995-3.478-1.884-6.34-9.724-8.586-21.421l-.767-4.285c-.371-2.22-.723-4.551-1.055-6.984l-.64-4.996-.588-5.244-.537-5.473c-.085-.93-.168-1.869-.25-2.816l-.46-5.776-.409-5.953a614.232 614.232 0 0 1-.185-3.036l-.332-6.18-.282-6.306-.23-6.41-.179-6.495-.128-6.56-.077-6.602-.025-6.626.025-6.628.077-6.61.128-6.572.288-9.74.256-6.387.306-6.276c.056-1.035.113-2.065.173-3.09l.384-6.072.434-5.91c.077-.97.156-1.934.237-2.889l.511-5.63.563-5.417c.098-.884.198-1.758.3-2.623l.64-5.06c.332-2.465.684-4.832 1.055-7.088l.767-4.361c2.246-11.92 5.108-20.046 8.586-22.277 3.143-2.017 10.772-1.373 21.372 1.265l4.11 1.082 4.372 1.26c.75.225 1.51.457 2.279.696l4.73 1.515 4.945 1.675 5.145 1.828 5.325 1.971 5.488 2.108 5.633 2.237 5.761 2.357 5.87 2.471c.987.42 1.978.846 2.972 1.276l6.001 2.625 6.067 2.72 6.115 2.806 6.144 2.883 6.156 2.954 6.15 3.017 6.128 3.071 6.085 3.119 6.027 3.158c.998.529 1.993 1.06 2.985 1.59l5.905 3.203 5.8 3.221 5.68 3.234 5.54 3.238a499.57 499.57 0 0 1 5.384 3.235l5.21 3.223a398.404 398.404 0 0 1 5.016 3.204l4.807 3.177c21.13 14.225 35.339 27.397 35.339 36.325" mask="url(#g)"/></g></g></svg>
